icons/SunDimmed.svg

<svg width="24" height="24" viewBox="0 0 24 24" fill="none" xmlns="http://www.w3.org/2000/svg">
<path fill-rule="evenodd" clip-rule="evenodd" d="M11,3c0,-0.55228 0.4477,-1 1,-1c0.5523,0 1,0.44772 1,1c0,0.55228 -0.4477,1 -1,1c-0.5523,0 -1,-0.44772 -1,-1zM7,6c0,0.55228 -0.44772,1 -1,1c-0.55228,0 -1,-0.44772 -1,-1c0,-0.55228 0.44772,-1 1,-1c0.55228,0 1,0.44772 1,1zM7.25,12c0,-2.62337 2.12665,-4.75001 4.75,-4.75001c2.6234,0 4.75,2.12664 4.75,4.75001c0,2.6233 -2.1266,4.75 -4.75,4.75c-2.62335,0 -4.75,-2.1267 -4.75,-4.75zM12,8.74999c-1.7949,0 -3.25,1.45511 -3.25,3.25001c0,1.7949 1.4551,3.25 3.25,3.25c1.7949,0 3.25,-1.4551 3.25,-3.25c0,-1.7949 -1.4551,-3.25001 -3.25,-3.25001zM4.25,12c0,0.5523 -0.44772,1 -1,1c-0.55228,0 -1,-0.4477 -1,-1c0,-0.5523 0.44772,-1 1,-1c0.55228,0 1,0.4477 1,1zM20.25,12c0,-0.5523 0.4477,-1 1,-1c0.5523,0 1,0.4477 1,1c0,0.5523 -0.4477,1 -1,1c-0.5523,0 -1,-0.4477 -1,-1zM17.25,18c0,-0.5523 0.4477,-1 1,-1c0.5523,0 1,0.4477 1,1c0,0.5523 -0.4477,1 -1,1c-0.5523,0 -1,-0.4477 -1,-1zM7.25,18c0,0.5523 -0.44772,1 -1,1c-0.55228,0 -1,-0.4477 -1,-1c0,-0.5523 0.44772,-1 1,-1c0.55228,0 1,0.4477 1,1zM17.25,6c0,-0.55228 0.4477,-1 1,-1c0.5523,0 1,0.44772 1,1c0,0.55228 -0.4477,1 -1,1c-0.5523,0 -1,-0.44772 -1,-1zM13,21c0,0.5523 -0.4477,1 -1,1c-0.5523,0 -1,-0.4477 -1,-1c0,-0.5523 0.4477,-1 1,-1c0.5523,0 1,0.4477 1,1z" fill="#002B51"/>
</svg>

<svg width="24" height="24" viewBox="0 0 24 24" fill="none" xmlns="http://www.w3.org/2000/svg">
<path fill-rule="evenodd" clip-rule="evenodd" d="M12 4C12.5523 4 13 3.55228 13 3C13 2.44772 12.5523 2 12 2C11.4477 2 11 2.44772 11 3C11 3.55228 11.4477 4 12 4ZM7 6C7 6.55228 6.55228 7 6 7C5.44772 7 5 6.55228 5 6C5 5.44772 5.44772 5 6 5C6.55228 5 7 5.44772 7 6ZM7.25 12C7.25 9.37663 9.37665 7.24999 12 7.24999C14.6234 7.24999 16.75 9.37663 16.75 12C16.75 14.6233 14.6234 16.75 12 16.75C9.37665 16.75 7.25 14.6233 7.25 12ZM12 8.74999C10.2051 8.74999 8.75 10.2051 8.75 12C8.75 13.7949 10.2051 15.25 12 15.25C13.7949 15.25 15.25 13.7949 15.25 12C15.25 10.2051 13.7949 8.74999 12 8.74999ZM4.25 12C4.25 12.5523 3.80228 13 3.25 13C2.69772 13 2.25 12.5523 2.25 12C2.25 11.4477 2.69772 11 3.25 11C3.80228 11 4.25 11.4477 4.25 12ZM21.25 13C21.8023 13 22.25 12.5523 22.25 12C22.25 11.4477 21.8023 11 21.25 11C20.6977 11 20.25 11.4477 20.25 12C20.25 12.5523 20.6977 13 21.25 13ZM18.25 19C18.8023 19 19.25 18.5523 19.25 18C19.25 17.4477 18.8023 17 18.25 17C17.6977 17 17.25 17.4477 17.25 18C17.25 18.5523 17.6977 19 18.25 19ZM7.25 18C7.25 18.5523 6.80228 19 6.25 19C5.69772 19 5.25 18.5523 5.25 18C5.25 17.4477 5.69772 17 6.25 17C6.80228 17 7.25 17.4477 7.25 18ZM18.25 7C18.8023 7 19.25 6.55228 19.25 6C19.25 5.44772 18.8023 5 18.25 5C17.6977 5 17.25 5.44772 17.25 6C17.25 6.55228 17.6977 7 18.25 7ZM13 21C13 21.5523 12.5523 22 12 22C11.4477 22 11 21.5523 11 21C11 20.4477 11.4477 20 12 20C12.5523 20 13 20.4477 13 21Z" fill="#002B51"/>
</svg>
